X:1
T:Title
L:1/8
Q:1/4=90
M:6/8
K:Eb
V:1 treble nm="Church Organ, Staff"
V:1
 G3/2F3/2 z/ GA3/2 | z/ GF3/2- F z/ F3/2 | z/ FF3/2 z/ GA3/2 | z/ BG3/2- G3/2G3/2 | %4
w: By~George~Edgar~Oliver * * *||||
 z/ G=A3/2 z/ G_G3/2 | z/ Gd3/2- d z/ B3/2 | z/ GG3/2 z/ FF3/2 | z/ cB3/2- B3/2B3/2 | %8
w: ||||
 z/ BBF/- F/GAd/- | d/cc3/2- c z/ B3/2 | z/ GB3/2 z/ AE3/2 | z/ FF3/2- F3/2F3/2 | %12
w: ||||
 z/ FF3/2 z/ FF3/2 | z/ cc3/2- c z/ B3/2 | z/ EF3/2 z/ FG3/2 | z/ FE3/2- E3/2E3/2 | z6 |] %17
w: |||||

